src/assets/mathematics.svg

<svg width="512" height="512" fill="none" xmlns="http://www.w3.org/2000/svg"><g clip-path="url(#a)"><path d="m414.898 450.207 15.688 27.453a22.944 22.944 0 0 1-.078 22.906A22.944 22.944 0 0 1 410.66 512h-.098a22.954 22.954 0 0 1-19.925-11.562l-28.707-50.231 26.484-17.656 26.484 17.656ZM97.102 450.207 81.414 477.66a22.944 22.944 0 0 0 .078 22.906A22.944 22.944 0 0 0 101.34 512h.098a22.954 22.954 0 0 0 19.925-11.562l28.707-50.231-26.484-17.656-26.484 17.656ZM256 0c14.625 0 26.484 11.855 26.484 26.484v35.309h-52.968V26.484C229.516 11.855 241.375 0 256 0Z" fill="#AF8066"/><path d="M335.449 450.207h141.242a35.297 35.297 0 0 0 24.969-10.34A35.28 35.28 0 0 0 512 414.898V79.449a35.29 35.29 0 0 0-10.34-24.972 35.314 35.314 0 0 0-24.969-10.34H35.309a35.315 35.315 0 0 0-24.97 10.34A35.29 35.29 0 0 0 0 79.449v335.449a35.28 35.28 0 0 0 10.34 24.969 35.298 35.298 0 0 0 24.969 10.34H176.55" fill="#95A5A5"/><path d="M335.449 414.898h132.414a8.858 8.858 0 0 0 8.828-8.828V88.277c-.015-4.87-3.961-8.816-8.828-8.828H44.137c-4.867.012-8.813 3.957-8.828 8.828V406.07a8.858 8.858 0 0 0 8.828 8.828h291.312Z" fill="#fff"/><path d="M335.449 300.137v203.035a8.829 8.829 0 0 1-8.828 8.828H185.379a8.829 8.829 0 0 1-8.828-8.828V300.137h158.898Z" fill="#E64C3C"/><path d="M335.449 300.137c0 14.629-11.859 26.484-26.484 26.484-14.625 0-26.481-11.855-26.481-26.484 0 14.629-11.859 26.484-26.484 26.484-14.625 0-26.484-11.855-26.484-26.484 0 14.629-11.856 26.484-26.481 26.484-14.625 0-26.484-11.855-26.484-26.484l9.621-26.481 32.223-89.07 2.296.793L256 167.723l35.309 17.656 2.296-.793 32.223 89.07 9.621 26.481Z" fill="#FDD7AD"/><path d="M229.516 379.586c-4.875 0-8.825-3.953-8.825-8.828v-8.828c0-4.875 3.95-8.828 8.825-8.828a8.826 8.826 0 0 1 8.828 8.828v8.828a8.826 8.826 0 0 1-8.828 8.828ZM238.344 406.07V512h-17.653V406.07c0-4.875 3.95-8.828 8.825-8.828a8.826 8.826 0 0 1 8.828 8.828ZM282.484 379.586a8.826 8.826 0 0 1-8.828-8.828v-8.828a8.826 8.826 0 0 1 8.828-8.828c4.875 0 8.825 3.953 8.825 8.828v8.828c0 4.875-3.95 8.828-8.825 8.828ZM291.309 406.07V512h-17.653V406.07a8.826 8.826 0 0 1 8.828-8.828c4.875 0 8.825 3.953 8.825 8.828Z" fill="#C03A2B"/><path d="M105.93 203.035a8.83 8.83 0 0 1-7.567-4.285L74.45 158.898H61.793a8.829 8.829 0 0 1 0-17.656h17.656a8.821 8.821 0 0 1 7.567 4.285l16.609 27.68 20.414-61.242a8.83 8.83 0 0 1 8.375-6.035h61.793a8.829 8.829 0 0 1 0 17.656h-55.43L114.305 197a8.817 8.817 0 0 1-7.414 5.98 8.614 8.614 0 0 1-.961.055Z" fill="#F29C1F"/><path d="M167.723 203.035c-14.618-.015-26.465-11.863-26.481-26.484v-17.653c0-14.628 11.856-26.484 26.481-26.484 14.629 0 26.484 11.856 26.484 26.484v17.653c-.016 14.621-11.863 26.469-26.484 26.484Zm0-52.965a8.834 8.834 0 0 0-8.825 8.828v17.653c0 4.875 3.95 8.828 8.825 8.828a8.829 8.829 0 0 0 8.828-8.828v-17.653a8.834 8.834 0 0 0-8.828-8.828Z" fill="#F29C1F"/><path d="M105.93 282.484H88.277a8.829 8.829 0 0 1 0-17.656v-17.656a8.832 8.832 0 0 1-8.156-5.45 8.83 8.83 0 0 1 1.914-9.617l8.828-8.828a8.824 8.824 0 0 1 15.067 6.238v35.313a8.829 8.829 0 0 1 0 17.656ZM123.586 317.793H70.621a8.829 8.829 0 0 1 0-17.656h52.965a8.829 8.829 0 0 1 0 17.656ZM114.758 388.414H79.449a8.83 8.83 0 0 1-7.57-13.371l26.484-44.137a8.821 8.821 0 0 1 7.731-4.34 8.83 8.83 0 0 1 7.406 13.426l-18.46 30.766h19.718a8.829 8.829 0 0 1 0 17.656Z" fill="#894B9D"/><path d="M105.93 397.242a8.83 8.83 0 0 1-8.828-8.828v-8.828a8.83 8.83 0 0 1 17.656 0v8.828a8.829 8.829 0 0 1-8.828 8.828Z" fill="#894B9D"/><path d="M365.586 158.898a8.829 8.829 0 0 1 0-17.656 8.83 8.83 0 0 0 6.246-15.07 9.045 9.045 0 0 0-12.484 0 8.816 8.816 0 0 1-8.574 2.398 8.821 8.821 0 0 1-6.301-6.293 8.82 8.82 0 0 1 2.386-8.578c10.477-10.012 26.973-10.011 37.454-.004a26.476 26.476 0 0 1 5.734 28.856 26.48 26.48 0 0 1-24.461 16.347Z" fill="#4482C3"/><path d="M365.586 194.207a26.302 26.302 0 0 1-18.727-7.762 8.829 8.829 0 0 1 3.915-14.875 8.828 8.828 0 0 1 8.574 2.399 9.045 9.045 0 0 0 12.484 0 8.825 8.825 0 0 0-6.246-15.071 8.829 8.829 0 0 1 0-17.656c14.625 0 26.484 11.856 26.484 26.481 0 14.629-11.859 26.484-26.484 26.484ZM427.379 282.484a8.829 8.829 0 0 1 0-17.656 8.826 8.826 0 0 0 6.242-15.066 9.03 9.03 0 0 0-12.484-.004 8.825 8.825 0 0 1-12.387-.094 8.824 8.824 0 0 1-.093-12.387c10.48-10.007 26.976-10.004 37.457.008a26.487 26.487 0 0 1 5.726 28.856 26.492 26.492 0 0 1-24.461 16.343Z" fill="#4482C3"/><path d="M427.379 317.793a26.289 26.289 0 0 1-18.722-7.758 8.828 8.828 0 0 1 12.48-12.484 9.032 9.032 0 0 0 12.477.008 8.822 8.822 0 0 0 1.921-9.621 8.822 8.822 0 0 0-8.156-5.454 8.829 8.829 0 0 1 0-17.656c14.625 0 26.485 11.856 26.485 26.481 0 14.629-11.86 26.484-26.485 26.484ZM361.93 256a8.828 8.828 0 0 1-6.239-15.07l79.446-79.446c3.464-3.347 8.972-3.301 12.375.106a8.828 8.828 0 0 1 .109 12.375l-79.449 79.449A8.802 8.802 0 0 1 361.93 256Z" fill="#4482C3"/><path d="M379.586 353.102h-8.828c-4.875 0-8.828-3.95-8.828-8.825a8.829 8.829 0 0 1 8.828-8.828h8.828a8.829 8.829 0 0 1 8.828 8.828c0 4.875-3.953 8.825-8.828 8.825ZM441.379 353.102H406.07c-4.875 0-8.828-3.95-8.828-8.825a8.829 8.829 0 0 1 8.828-8.828h35.309a8.829 8.829 0 0 1 8.828 8.828c0 4.875-3.953 8.825-8.828 8.825ZM441.379 388.414h-70.621a8.829 8.829 0 0 1 0-17.656h70.621a8.829 8.829 0 0 1 0 17.656Z" fill="#71C285"/><path d="m293.605 184.586-2.296.793h-70.618l-2.296-.793 21.007-58.176A17.651 17.651 0 0 1 256 114.758c7.434 0 14.07 4.66 16.598 11.652l21.007 58.176Z" fill="#2C2F38"/></g><defs><clipPath id="a"><path fill="#fff" d="M0 0h512v512H0z"/></clipPath></defs></svg>

<svg width="512" height="512" viewBox="0 0 512 512" fill="none" xmlns="http://www.w3.org/2000/svg">
<g clip-path="url(#clip0)">
<path d="M414.898 450.207L430.586 477.66C434.645 484.766 434.617 493.492 430.508 500.566C426.402 507.645 418.84 512 410.66 512H410.562C402.328 512 394.723 507.586 390.637 500.438L361.93 450.207L388.414 432.551L414.898 450.207Z" fill="#AF8066"/>
<path d="M97.1017 450.207L81.4142 477.66C77.3556 484.766 77.3829 493.492 81.4923 500.566C85.5978 507.645 93.1603 512 101.34 512H101.438C109.672 512 117.277 507.586 121.363 500.438L150.07 450.207L123.586 432.551L97.1017 450.207Z" fill="#AF8066"/>
<path d="M256 0C270.625 0 282.484 11.8555 282.484 26.4844V61.793H229.516V26.4844C229.516 11.8555 241.375 0 256 0Z" fill="#AF8066"/>
<path d="M335.449 450.207H476.691C486.055 450.211 495.039 446.488 501.66 439.867C508.285 433.246 512.004 424.262 512 414.898V79.4492C512.004 70.082 508.285 61.1016 501.66 54.4766C495.039 47.8555 486.055 44.1367 476.691 44.1367H35.3086C25.9453 44.1367 16.9609 47.8555 10.3398 54.4766C3.71485 61.1016 -0.00390318 70.082 3.07429e-06 79.4492V414.898C-0.00390318 424.262 3.71485 433.246 10.3398 439.867C16.9609 446.488 25.9453 450.211 35.3086 450.207H176.551" fill="#95A5A5"/>
<path d="M335.449 414.898H467.863C472.73 414.883 476.676 410.938 476.691 406.07V88.2773C476.676 83.4062 472.73 79.4609 467.863 79.4492H44.1367C39.2695 79.4609 35.3242 83.4062 35.3086 88.2773V406.07C35.3242 410.938 39.2695 414.883 44.1367 414.898H335.449Z" fill="white"/>
<path d="M335.449 300.137V503.172C335.449 508.047 331.496 512 326.621 512H185.379C180.504 512 176.551 508.047 176.551 503.172V300.137H335.449Z" fill="#E64C3C"/>
<path d="M335.449 300.137C335.449 314.766 323.59 326.621 308.965 326.621C294.34 326.621 282.484 314.766 282.484 300.137C282.484 314.766 270.625 326.621 256 326.621C241.375 326.621 229.516 314.766 229.516 300.137C229.516 314.766 217.66 326.621 203.035 326.621C188.41 326.621 176.551 314.766 176.551 300.137L186.172 273.656L218.395 184.586L220.691 185.379L256 167.723L291.309 185.379L293.605 184.586L325.828 273.656L335.449 300.137Z" fill="#FDD7AD"/>
<path d="M229.516 379.586C224.641 379.586 220.691 375.633 220.691 370.758V361.93C220.691 357.055 224.641 353.102 229.516 353.102C234.395 353.102 238.344 357.055 238.344 361.93V370.758C238.344 375.633 234.395 379.586 229.516 379.586Z" fill="#C03A2B"/>
<path d="M238.344 406.07V512H220.691V406.07C220.691 401.195 224.641 397.242 229.516 397.242C234.395 397.242 238.344 401.195 238.344 406.07Z" fill="#C03A2B"/>
<path d="M282.484 379.586C277.605 379.586 273.656 375.633 273.656 370.758V361.93C273.656 357.055 277.605 353.102 282.484 353.102C287.359 353.102 291.309 357.055 291.309 361.93V370.758C291.309 375.633 287.359 379.586 282.484 379.586Z" fill="#C03A2B"/>
<path d="M291.309 406.07V512H273.656V406.07C273.656 401.195 277.605 397.242 282.484 397.242C287.359 397.242 291.309 401.195 291.309 406.07Z" fill="#C03A2B"/>
<path d="M105.93 203.035C102.832 203.035 99.957 201.406 98.3633 198.75L74.4492 158.898H61.793C56.918 158.898 52.9648 154.945 52.9648 150.07C52.9648 145.195 56.918 141.242 61.793 141.242H79.4492C82.5469 141.242 85.4219 142.867 87.0156 145.527L103.625 173.207L124.039 111.965C125.242 108.363 128.613 105.93 132.414 105.93H194.207C199.082 105.93 203.035 109.883 203.035 114.758C203.035 119.633 199.082 123.586 194.207 123.586H138.777L114.305 197C113.215 200.27 110.32 202.609 106.891 202.98C106.57 203.016 106.25 203.035 105.93 203.035Z" fill="#F29C1F"/>
<path d="M167.723 203.035C153.105 203.02 141.258 191.172 141.242 176.551V158.898C141.242 144.27 153.098 132.414 167.723 132.414C182.352 132.414 194.207 144.27 194.207 158.898V176.551C194.191 191.172 182.344 203.02 167.723 203.035ZM167.723 150.07C162.852 150.074 158.902 154.023 158.898 158.898V176.551C158.898 181.426 162.848 185.379 167.723 185.379C172.598 185.379 176.551 181.426 176.551 176.551V158.898C176.547 154.023 172.598 150.074 167.723 150.07Z" fill="#F29C1F"/>
<path d="M105.93 282.484H88.2773C83.4023 282.484 79.4492 278.531 79.4492 273.656C79.4492 268.781 83.4023 264.828 88.2773 264.828V247.172C84.707 247.172 81.4883 245.019 80.1211 241.722C78.7578 238.426 79.5117 234.629 82.0352 232.105L90.8633 223.277C93.3867 220.754 97.1836 219.996 100.48 221.363C103.781 222.73 105.93 225.949 105.93 229.515V264.828C110.805 264.828 114.758 268.781 114.758 273.656C114.758 278.531 110.805 282.484 105.93 282.484Z" fill="#894B9D"/>
<path d="M123.586 317.793H70.6211C65.7461 317.793 61.793 313.84 61.793 308.965C61.793 304.09 65.7461 300.137 70.6211 300.137H123.586C128.461 300.137 132.414 304.09 132.414 308.965C132.414 313.84 128.461 317.793 123.586 317.793Z" fill="#894B9D"/>
<path d="M114.758 388.414H79.4494C76.2698 388.414 73.3323 386.703 71.7659 383.934C70.1994 381.168 70.2424 377.77 71.8791 375.043L98.3635 330.906C99.9729 328.176 102.922 326.52 106.094 326.566C109.262 326.613 112.16 328.355 113.692 331.129C115.223 333.902 115.149 337.285 113.5 339.992L95.0393 370.758H114.758C119.633 370.758 123.586 374.711 123.586 379.586C123.586 384.461 119.633 388.414 114.758 388.414Z" fill="#894B9D"/>
<path d="M105.93 397.242C101.055 397.242 97.1016 393.289 97.1016 388.414V379.586C97.1016 374.711 101.055 370.758 105.93 370.758C110.805 370.758 114.758 374.711 114.758 379.586V388.414C114.758 393.289 110.805 397.242 105.93 397.242Z" fill="#894B9D"/>
<path d="M365.586 158.898C360.711 158.898 356.758 154.945 356.758 150.07C356.758 145.195 360.711 141.242 365.586 141.242C369.156 141.242 372.375 139.094 373.742 135.793C375.109 132.496 374.356 128.699 371.832 126.172C368.34 122.84 362.844 122.84 359.348 126.172C357.133 128.461 353.856 129.379 350.774 128.57C347.691 127.762 345.281 125.359 344.473 122.277C343.66 119.195 344.574 115.918 346.859 113.699C357.336 103.687 373.832 103.688 384.313 113.695C391.883 121.27 394.149 132.656 390.047 142.551C385.949 152.445 376.297 158.895 365.586 158.898Z" fill="#4482C3"/>
<path d="M365.586 194.207C358.559 194.227 351.813 191.43 346.859 186.445C344.574 184.223 343.66 180.945 344.473 177.863C345.281 174.785 347.691 172.379 350.774 171.57C353.856 170.766 357.133 171.68 359.348 173.969C362.844 177.301 368.34 177.301 371.832 173.969C374.359 171.445 375.117 167.645 373.75 164.344C372.383 161.043 369.16 158.895 365.586 158.898C360.711 158.898 356.758 154.945 356.758 150.07C356.758 145.195 360.711 141.242 365.586 141.242C380.211 141.242 392.07 153.098 392.07 167.723C392.07 182.352 380.211 194.207 365.586 194.207Z" fill="#4482C3"/>
<path d="M427.379 282.484C422.504 282.484 418.551 278.531 418.551 273.656C418.551 268.781 422.504 264.828 427.379 264.828C430.949 264.828 434.168 262.68 435.535 259.383C436.903 256.082 436.145 252.285 433.621 249.762C430.133 246.422 424.629 246.418 421.137 249.758C417.676 253.117 412.16 253.074 408.75 249.664C405.34 246.254 405.297 240.738 408.657 237.277C419.137 227.27 435.633 227.273 446.114 237.285C453.68 244.859 455.938 256.246 451.84 266.141C447.739 276.031 438.086 282.48 427.379 282.484Z" fill="#4482C3"/>
<path d="M427.379 317.793C420.352 317.812 413.61 315.02 408.657 310.035C405.297 306.574 405.34 301.055 408.75 297.645C412.16 294.234 417.676 294.195 421.137 297.551C424.625 300.887 430.117 300.891 433.614 297.559C436.141 295.039 436.903 291.238 435.535 287.938C434.172 284.637 430.953 282.484 427.379 282.484C422.504 282.484 418.551 278.531 418.551 273.656C418.551 268.781 422.504 264.828 427.379 264.828C442.004 264.828 453.864 276.684 453.864 291.309C453.864 305.938 442.004 317.793 427.379 317.793Z" fill="#4482C3"/>
<path d="M361.93 256C358.359 256 355.144 253.847 353.777 250.551C352.41 247.254 353.168 243.457 355.691 240.93L435.137 161.484C438.601 158.137 444.109 158.183 447.512 161.59C450.918 164.996 450.965 170.5 447.621 173.965L368.172 253.414C366.519 255.07 364.273 256.004 361.93 256Z" fill="#4482C3"/>
<path d="M379.586 353.102H370.758C365.883 353.102 361.93 349.152 361.93 344.277C361.93 339.402 365.883 335.449 370.758 335.449H379.586C384.461 335.449 388.414 339.402 388.414 344.277C388.414 349.152 384.461 353.102 379.586 353.102Z" fill="#71C285"/>
<path d="M441.379 353.102H406.07C401.195 353.102 397.242 349.152 397.242 344.277C397.242 339.402 401.195 335.449 406.07 335.449H441.379C446.254 335.449 450.207 339.402 450.207 344.277C450.207 349.152 446.254 353.102 441.379 353.102Z" fill="#71C285"/>
<path d="M441.379 388.414H370.758C365.883 388.414 361.93 384.461 361.93 379.586C361.93 374.711 365.883 370.758 370.758 370.758H441.379C446.254 370.758 450.207 374.711 450.207 379.586C450.207 384.461 446.254 388.414 441.379 388.414Z" fill="#71C285"/>
<path d="M293.605 184.586L291.309 185.379H220.691L218.395 184.586L239.402 126.41C241.93 119.418 248.566 114.758 256 114.758C263.434 114.758 270.07 119.418 272.598 126.41L293.605 184.586Z" fill="#2C2F38"/>
</g>
<defs>
<clipPath id="clip0">
<rect width="512" height="512" fill="white"/>
</clipPath>
</defs>
</svg>
